X: 113202
T: MISS DUMBRECK
Q: "Reel."
R:  Reel.
%R: reel
B: James Kerr "Merry Melodies" v.1 p.13 s.2 #2
Z: 2017 John Chambers <jc:trillian.mit.edu>
M: C
L: 1/8
K: Bb
f !segno!|\
(ed)cB B2df | gfdf gabf |\
(ed)cB B2dB | cAFA cdef |\
(ed)cB B2df | gfdf gfga |\
b2bf (ed)cB |
AFcF dFcF |:\
B2df (gf)df | bfdf gfdB |\
[1 F2Ac (fg)=eg | fg=eg fcAF :|\
[2 GeFd EcDB | FGAB cde"_D.C."f |]

%%sep 1 1 500
%%sep 1 1 500

